Origami/24x24/apps/ms-excel.svg

<svg width="24" height="24" version="1.1" viewBox="0 0 48 48" xmlns="http://www.w3.org/2000/svg">
 <path d="m34.158694 7.001891c-2.339941-0.051114-4.593769 0.9363666-6.144072 2.6910582-0.0012 0.0014-0.0027 0.0025-0.0039 0.0039l-4.015616 4.4240828-4.01174-4.4162958c-1.424465-1.6183716-3.450682-2.592914-5.603207-2.6949526-0.260519-0.012616-0.51772-0.013001-0.778224 0a5.977352 5.9824591 0 0 0 -0.01945 0c-6.3391418 0.3359162-9.7357536 8.7710204-5.4008818 13.412449l5.0428858 5.553472-4.9650635 5.467795c-1.5192901 1.580887-2.4400962 4.078962-2.2296097 6.266155 0.2104868 2.187194 1.2500876 3.924619 2.6187213 5.167923 1.3686339 1.243304 3.1976469 2.112373 5.3930859 2.110788 2.19544-0.0016 4.590268-1.161185 6.015666-2.827365l3.937809-4.330618 4.054544 4.463029-0.147863-0.167461c1.418645 1.683037 3.819828 2.866353 6.02734 2.874097 2.20751 0.0078 4.047562-0.863731 5.420324-2.110787 1.372761-1.247055 2.417086-2.995369 2.622612-5.195185 0.205525-2.199813-0.739595-4.705945-2.276302-6.281731l-4.933937-5.43664 5.050669-5.561261c2.191468-2.3538 2.626913-5.893796 1.513644-8.536614-1.113268-2.6428173-3.949803-4.8028356-7.163544-4.875839a5.977352 5.9824591 0 0 0 -0.0039 0z" style="opacity:.2"/>
 <path d="m34.158694 6.0018906c-2.339941-0.051114-4.593769 0.9363666-6.144072 2.6910586-0.0012 0.00139-0.0027 0.0025-0.0039 0.0039l-4.015616 4.4240828-4.01174-4.4162959c-1.424465-1.6183719-3.450682-2.5929143-5.603207-2.6949529-0.260519-0.012616-0.51772-0.013001-0.778224 0a5.977352 5.9824591 0 0 0 -0.01945 0c-6.3391418 0.3359162-9.7357536 8.7710208-5.4008818 13.41245l5.0428858 5.553472-4.9650635 5.467795c-1.5192901 1.580887-2.4400962 4.078962-2.2296097 6.266155 0.2104868 2.187194 1.2500876 3.924619 2.6187213 5.167923 1.3686339 1.243304 3.1976469 2.112373 5.3930859 2.110788 2.19544-0.0016 4.590268-1.161185 6.015666-2.827365l3.937809-4.330618 4.054544 4.463029-0.147863-0.167461c1.418645 1.683037 3.819828 2.866353 6.02734 2.874097 2.20751 0.0078 4.047562-0.863731 5.420324-2.110787 1.372761-1.247055 2.417086-2.995369 2.622612-5.195185 0.205525-2.199813-0.739595-4.705945-2.276302-6.281731l-4.933937-5.43664 5.050669-5.561261c2.191468-2.3538 2.626913-5.893796 1.513644-8.536614-1.113268-2.6428177-3.949803-4.802836-7.163544-4.8758394a5.977352 5.9824591 0 0 0 -0.0039 0z" style="fill:#7ec242"/>
 <path d="m13.875 12.980111a2.0002 2.0002 0 0 0 -1.355469 3.363282l8.789063 9.667968-8.769532 9.644532a2.0002 2.0002 0 1 0 2.960938 2.6875l8.507812-9.359374 8.51172 9.359374a2.0006762 2.0006762 0 1 0 2.960936 -2.6875l-8.76953-9.644532 8.789062-9.667968a2.0002 2.0002 0 0 0 -1.417968 -3.363282 2.0002 2.0002 0 0 0 -1.54297 0.675782l-8.53125 9.382812-8.527343-9.382812a2.0002 2.0002 0 0 0 -1.40625 -0.675782 2.0002 2.0002 0 0 0 -0.199219 0z" style="opacity:.2"/>
 <path transform="scale(2)" d="m6.9375 5.9902344a1.0001 1.0001 0 0 0 -0.6777344 1.6816406l4.3945314 4.833984-4.3847658 4.822266a1.0001 1.0001 0 1 0 1.4804688 1.34375l4.253906-4.679687 4.25586 4.679687a1.0003381 1.0003381 0 1 0 1.480468 -1.34375l-4.384765-4.822266 4.394531-4.833984a1.0001 1.0001 0 0 0 -0.708984 -1.6816406 1.0001 1.0001 0 0 0 -0.771485 0.3378906l-4.265625 4.691406-4.2636716-4.691406a1.0001 1.0001 0 0 0 -0.703125 -0.3378906 1.0001 1.0001 0 0 0 -0.0996094 0z" style="fill:#ffffff"/>
 <path transform="scale(2)" d="m17.080078 3c-1.16997-0.025557-2.297114 0.4683571-3.072266 1.3457031 0 0-0.001953 0.0019531-0.001953 0.0019531l-2.007812 2.2128907-2.0058595-2.2089844c-0.7122325-0.809186-1.7264719-1.296637-2.8027344-1.3476563-0.1302595-0.006308-0.2584199-0.0065004-0.3886719 0a2.988676 2.9912295 0 0 0 -0.0097656 0c-2.2749242 0.1205501-3.7825072 2.3276843-3.65625 4.421875 0.1194782-1.9311037 1.5624635-3.8109235 3.65625-3.921875a2.988676 2.9912295 0 0 1 0.0097656 0c0.130252-0.0065005 0.2584124-0.006308 0.3886719 0 1.0762625 0.0510194 2.0905019 0.5384705 2.8027344 1.3476563l2.0058595 2.2089844 2.007812-2.2128907s0.001953-0.0019531 0.001953-0.0019531c0.775152-0.8773458 1.902296-1.3712601 3.072266-1.3457031a2.988676 2.9912295 0 0 0 0.001953 0c1.606871 0.0365017 3.023444 1.1180442 3.580078 2.4394531 0.16598 0.3940229 0.255721 0.8292143 0.28125 1.2753907 0.038528-0.6193247-0.053565-1.2348847-0.28125-1.7753907-0.556634-1.3214088-1.973207-2.4029514-3.580078-2.4394531a2.988676 2.9912295 0 0 0 -0.001953 0zm-10.695312 9.738281l-2.2558594 2.484375c-0.7462708 0.776527-1.199139 1.994686-1.1152343 3.074219 0.0635567-0.939898 0.4824865-1.915817 1.1152343-2.574219l2.4824219-2.734375-0.2265625-0.25zm11.222656 0l-0.226563 0.25 2.466797 2.71875c0.646214 0.662647 1.079159 1.652595 1.140625 2.605469 0.089792-1.091494-0.380318-2.325827-1.140625-3.105469l-2.240234-2.46875z" style="fill:#ffffff;opacity:.2"/>
</svg>

<svg xmlns="http://www.w3.org/2000/svg" width="24" height="24" version="1.1" viewBox="0 0 48 48">
 <path style="opacity:0.2" d="m 34.158694,7.001891 c -2.339941,-0.051114 -4.593769,0.9363666 -6.144072,2.6910582 -0.0012,0.0014 -0.0027,0.0025 -0.0039,0.0039 l -4.015616,4.4240828 -4.01174,-4.4162958 c -1.424465,-1.6183716 -3.450682,-2.592914 -5.603207,-2.6949526 -0.260519,-0.012616 -0.51772,-0.013001 -0.778224,0 a 5.977352,5.9824591 0 0 0 -0.01945,0 C 7.2433432,7.3455998 3.8467314,15.780704 8.1816032,20.422133 L 13.224489,25.975605 8.2594255,31.4434 c -1.5192901,1.580887 -2.4400962,4.078962 -2.2296097,6.266155 0.2104868,2.187194 1.2500876,3.924619 2.6187213,5.167923 1.3686339,1.243304 3.1976469,2.112373 5.3930859,2.110788 2.19544,-0.0016 4.590268,-1.161185 6.015666,-2.827365 l 3.937809,-4.330618 4.054544,4.463029 -0.147863,-0.167461 c 1.418645,1.683037 3.819828,2.866353 6.02734,2.874097 2.20751,0.0078 4.047562,-0.863731 5.420324,-2.110787 1.372761,-1.247055 2.417086,-2.995369 2.622612,-5.195185 0.205525,-2.199813 -0.739595,-4.705945 -2.276302,-6.281731 l -4.933937,-5.43664 5.050669,-5.561261 c 2.191468,-2.3538 2.626913,-5.893796 1.513644,-8.536614 C 40.212861,9.2349127 37.376326,7.0748944 34.162585,7.001891 a 5.977352,5.9824591 0 0 0 -0.0039,0 z"/>
 <path style="fill:#7ec242" d="m 34.158694,6.0018906 c -2.339941,-0.051114 -4.593769,0.9363666 -6.144072,2.6910586 -0.0012,0.00139 -0.0027,0.0025 -0.0039,0.0039 L 23.995106,13.120932 19.983366,8.7046361 C 18.558901,7.0862642 16.532684,6.1117218 14.380159,6.0096832 c -0.260519,-0.012616 -0.51772,-0.013001 -0.778224,0 a 5.977352,5.9824591 0 0 0 -0.01945,0 C 7.2433432,6.3455994 3.8467314,14.780704 8.1816032,19.422133 L 13.224489,24.975605 8.2594255,30.4434 c -1.5192901,1.580887 -2.4400962,4.078962 -2.2296097,6.266155 0.2104868,2.187194 1.2500876,3.924619 2.6187213,5.167923 1.3686339,1.243304 3.1976469,2.112373 5.3930859,2.110788 2.19544,-0.0016 4.590268,-1.161185 6.015666,-2.827365 l 3.937809,-4.330618 4.054544,4.463029 -0.147863,-0.167461 c 1.418645,1.683037 3.819828,2.866353 6.02734,2.874097 2.20751,0.0078 4.047562,-0.863731 5.420324,-2.110787 1.372761,-1.247055 2.417086,-2.995369 2.622612,-5.195185 0.205525,-2.199813 -0.739595,-4.705945 -2.276302,-6.281731 l -4.933937,-5.43664 5.050669,-5.561261 c 2.191468,-2.3538 2.626913,-5.893796 1.513644,-8.536614 C 40.212861,8.2349123 37.376326,6.074894 34.162585,6.0018906 a 5.977352,5.9824591 0 0 0 -0.0039,0 z"/>
 <path style="opacity:0.2" d="m 13.875,12.980111 a 2.0002,2.0002 0 0 0 -1.355469,3.363282 l 8.789063,9.667968 -8.769532,9.644532 A 2.0002,2.0002 0 1 0 15.5,38.343393 l 8.507812,-9.359374 8.51172,9.359374 a 2.0006762,2.0006762 0 1 0 2.960936,-2.6875 L 26.710938,26.011361 35.5,16.343393 a 2.0002,2.0002 0 0 0 -1.417968,-3.363282 2.0002,2.0002 0 0 0 -1.54297,0.675782 l -8.53125,9.382812 -8.527343,-9.382812 a 2.0002,2.0002 0 0 0 -1.40625,-0.675782 2.0002,2.0002 0 0 0 -0.199219,0 z"/>
 <path style="fill:#ffffff" d="M 6.9375 5.9902344 A 1.0001 1.0001 0 0 0 6.2597656 7.671875 L 10.654297 12.505859 L 6.2695312 17.328125 A 1.0001 1.0001 0 1 0 7.75 18.671875 L 12.003906 13.992188 L 16.259766 18.671875 A 1.0003381 1.0003381 0 1 0 17.740234 17.328125 L 13.355469 12.505859 L 17.75 7.671875 A 1.0001 1.0001 0 0 0 17.041016 5.9902344 A 1.0001 1.0001 0 0 0 16.269531 6.328125 L 12.003906 11.019531 L 7.7402344 6.328125 A 1.0001 1.0001 0 0 0 7.0371094 5.9902344 A 1.0001 1.0001 0 0 0 6.9375 5.9902344 z" transform="scale(2)"/>
 <path style="opacity:0.2;fill:#ffffff" d="M 17.080078 3 C 15.910108 2.974443 14.782964 3.4683571 14.007812 4.3457031 C 14.007812 4.3457031 14.005859 4.3476562 14.005859 4.3476562 L 11.998047 6.5605469 L 9.9921875 4.3515625 C 9.279955 3.5423765 8.2657156 3.0549255 7.1894531 3.0039062 C 7.0591936 2.9975982 6.9310332 2.9974058 6.8007812 3.0039062 A 2.988676 2.9912295 0 0 0 6.7910156 3.0039062 C 4.5160914 3.1244563 3.0085084 5.3315905 3.1347656 7.4257812 C 3.2542438 5.4946775 4.6972291 3.6148577 6.7910156 3.5039062 A 2.988676 2.9912295 0 0 1 6.8007812 3.5039062 C 6.9310332 3.4974057 7.0591936 3.4975982 7.1894531 3.5039062 C 8.2657156 3.5549256 9.279955 4.0423767 9.9921875 4.8515625 L 11.998047 7.0605469 L 14.005859 4.8476562 C 14.005859 4.8476562 14.007812 4.8457031 14.007812 4.8457031 C 14.782964 3.9683573 15.910108 3.474443 17.080078 3.5 A 2.988676 2.9912295 0 0 0 17.082031 3.5 C 18.688902 3.5365017 20.105475 4.6180442 20.662109 5.9394531 C 20.828089 6.333476 20.91783 6.7686674 20.943359 7.2148438 C 20.981887 6.5955191 20.889794 5.9799591 20.662109 5.4394531 C 20.105475 4.1180443 18.688902 3.0365017 17.082031 3 A 2.988676 2.9912295 0 0 0 17.080078 3 z M 6.3847656 12.738281 L 4.1289062 15.222656 C 3.3826354 15.999183 2.9297672 17.217342 3.0136719 18.296875 C 3.0772286 17.356977 3.4961584 16.381058 4.1289062 15.722656 L 6.6113281 12.988281 L 6.3847656 12.738281 z M 17.607422 12.738281 L 17.380859 12.988281 L 19.847656 15.707031 C 20.49387 16.369678 20.926815 17.359626 20.988281 18.3125 C 21.078073 17.221006 20.607963 15.986673 19.847656 15.207031 L 17.607422 12.738281 z" transform="scale(2)"/>
</svg>
